X:1
T:Oh Solitude
T:Henry Purcell, 1687 B.C. realized by Andrew Thoday, based on William Pearson 1706 edition
T:Katherine Philips 
T:Oh Solitude
T:CC BY 2.0. Typeset by Andrew Thoday. This edition can be freely distributed, duplicated, performed, and recorded.
T:CC BY 2.0. Typeset by Andrew Thoday. This edition can be freely distributed, duplicated, performed, and recorded.
T:CC BY 2.0. Typeset by Andrew Thoday. This edition can be freely distributed, duplicated, performed, and recorded.
T:CC BY 2.0. Typeset by Andrew Thoday. This edition can be freely distributed, duplicated, performed, and recorded.
T:CC BY 2.0. Typeset by Andrew Thoday. This edition can be freely distributed, duplicated, performed, and recorded.
C:Henry Purcell
Z:Katherine Philips
Z:CC BY 2.0. Typeset by Andrew Thoday. This edition can be freely distributed, duplicated, performed, and recorded.
%%score 1 { 2 | 3 }
L:1/8
M:3/2
K:Eb
V:1 treble nm="Soprano" snm="Sop."
V:2 treble nm="Continuo" snm="B.C."
V:3 bass 
V:1
 z12 | z12 | z4 c8 | D3 D D4 z2 d2 | (e3 d c2 dc B3) A | G8 z4 | z4 f8 | =B6 _B2 =B4 | z4 e8 | %9
w: ||Oh|so- li- tude, my|swee- * * * * * test|choice!|Oh|so- li- tude,|Oh|
 G3 G G4 z2 =B2 | (c3 =B c3 e d2 ec | =B3) c c6 B2 | c8 z4 | G2 G4 A2 B4 | (B2 E2) A6 A2 | %15
w: so- li- tude, my|swee- * * * * * *|* test, sweet- est|choice!|Pla- ces de- vo-|ted _ to the|
 D8 z2 G2 | C8 A4 | A4 G4 c2 =B2 | c6 d2 e d3 | (cBcA B3 c d2 ed | c3) B A6 G2 | G8 z4 | z4 c8 | %23
w: night, re-|mote from|tu- mult, and from|noise, how ye my|rest- * * * * * * * *|* less thoughts de-|light!|Oh|
 D6 D2 D4 | z4 e8 | G3 G G4 z2 =B2 | (c3 =B c3 e d2 ec | =B3) c c6 B2 | c8 z4 | z4 z4 g4 | %30
w: so- li- tude,|Oh|so- li- tude, my|swee- * * * * * *|* test, swee- test|choice!|Oh|
 g2 c6 d2 (e2 | f2 =B2) c6 d2 | e6 e2 e G3 | c3 B A6 G2 | F6 F2 G3 A | G F3 E6 D2 | E6 D2 E2 C2 | %37
w: hea- vens what con-|* * tent is|mine, to see these|trees, which have ap-|pear'd, from the na-|ti- vi- ty of|time; and, which all|
 (GA) B2 A6 G2 | c6 =B2 c3 d | e3 f f6 g2 | g6 f2 e3 d | c2 G2 d6 e2 | f6 e2 d3 e | d G3 c6 =B2 | %44
w: a- * ges have re-|ver'd, to look to-|day as fresh and|green, to look to-|day as fresh and|green, as when their|beau- ties first were|
 c8 z4 | z12 | z4 c8 | z4 d4 d2 d2 | e3 e e6 d2 | c2 G2 (F2 E2) (D2 C2) | c2 =B2 (c4 d3) e | %51
w: seen?||Oh,|Oh, how a-|gree- a- ble a|sight these hang- * ing _|moun- taines do _ ap-|
 d8 e2 G2 | (G A2) B (c4 B2 A)B | G6 A2 B G3 | E3 F (E4 D3) C | G6 g2 f4 | (f4 e6) e2 | %57
w: pear, which th'un-|hap- * py would _ _ in-|vite, to fi- nish|all their sor- * rows|here; when their|hard, * their|
 (e4 _d6 c2) | c8 (f4- | f2 g2) e6 d2 | e8 (d2 c2) | G8 g4 | =B6 B2 c4- | c3 G E4 (D2 C2) | C8 z4 | %65
w: hard _ _|fate makes|_ _ them en-|dure such _|woes, such|woes, as on-|* ly death can _|cure.|
 z12 | z4 e8 | z4 (f4 =B4) | z4 e4 d4 | (d4 c4) =B4 | c4 (d6 e2) | =B8 _B4 | z4 (B4 A4) | %73
w: |Oh,|Oh, _|how I|so- * li-|tude a- *|dore! Oh,|Oh, _|
 z4 A4 G4 | (c4 d4) e4 | e6 (f2 d4) | e8 z2 f2 | g3 g g4 z2 =B2 | (c2 dc =B6) A2 | G8 z2 D2 | %80
w: how I|so- * li-|tude a- *|dore! that|e- le- ment of|no- * * * blest|wit, where|
 E2 C2 G6 G2 | G2 E2 B6 G2 | c3 d e6 d2 | B3 c d6 d2 | (eABG !breath!^F6) G2 | G3 G G4 z4 | %86
w: I have learnt, where|I have learnt, A-|pol- lo's love, wi-|thout the pains, the|pains _ _ _ _ to|stu- dy it.|
 z4 z2 d2 e4 | =B8 g2 d2 | (e2 G4 A2) B4 | E6 d2 e3 d | c6 d2 e4 | d2 c2 (=B2 c2) (d2 c2) | %92
w: For thy|sake I in|love _ _ am|grown, with what thy|fan- cy, thy|fan- cy, does _ pur- *|
 c6 g2 g2 f2 | f3 g e6 d2 | c8 z2 f2 | G4 G4 z2 d2 | e6 G2 (GA B2) | (A2 G2) F6 E2 | E8 z2 c2 | %99
w: sue; but when I|think up- on my|own, I|hate it, I|hate it, for _ _|that _ rea- son|too; be-|
 c2 =B2 c6 d2 | e3 e e6 e2 | e4 d6 d2 | d4 =B4 c4- | c4 (c4 =B4) | c3 c c4 z4 | z12 | z4 f8 | %107
w: cause it needs must|hin- der me from|see- ing, from|see- ing, and|_ from _|ser- ving thee.||Oh|
 =B6 _B2 =B4 | z4 g8- | g8 g2 g2 | (g4 =B4) c4 | c8 !fermata!=B4 | c12 |] %113
w: so- li- tude,|Oh|_ how I|so- * li-|tude a-|dore|
V:2
 z4 e8 | G3 G G6 =B2 | c3 =B c3 e d2 ec | =B8 B4 | G4 E4 F4 | (G3 F E2 FE D3) E | F4 d4 c2 A2 | %7
 G2 F2 G2 D4 D2 | E2 F2 G6 A2 | G2 E2 D2 =B,2 D4 | E2 F2 E2 D4 C2 | D4 E2 C2 =B,2 D2 | %12
 E3 D E3 G F2 GF | E6 F2 G2 F2 | E4 E2 D2 C4 | B,4 D3 E F2 E2 | E3 D E2 F4 D2 | %17
 C3 =B, C2 D2 E2 D2 | E4 C2 =B,2 C2 D2 | E4 D4 B,2 D2 | E2 G2 F2 E2 F4 | GFGE F3 E D2 EF | %22
 E3 D E4 A4 | B4 c4 d4 | e2 c2 G6 F2 | E4 D2 =B,2 C2 D2 | E2 F2 E4 D2 C2 | D4 E3 F E2 D2 | %28
 E3 D E3 G F2 GF | G4 c4 =B2 d2 | c2 G2 E2 G2 =B2 c2 | =B2 G2 E2 D2 F2 B2 | c3 G A6 B2 | %33
 G2 E2 C2 D4 E2 | F3 E D2 C2 =B,4 | C6 F2 G3 A | G F3 E2 F2 G2 E2 | B,4 C2 D4 E2- | %38
 E2 F2 E2 D2 F2 A2 | =B2 c3 d c2 B4- | B3 A G2 A2 G2 F2 | E4 a3 g f2 e2 | d2 c2 =B2 G2 A4 | %43
 =B4 E2 D2 E2 F2 | G6 A2 G3 A | G C3 F6 E2 | D4 E4 A2 B2 | =B2 c2 d2 c2 B2 A2 | G8 G2 F2 | %49
 G2 E2 D4 F4 | E6 G2 A4 | =B2 G2 D2 =B,2 C2 E2- | E2 F2 G2 E2 F4 | G4 F2 EF D4 | C6 B,4 A,2 | %55
 =B,4 D2 E2 F2 D2 | E2 F2 G2 E2 F2 G2 | A2 G2 A2 B6 | A2 F2 D2 C2 =B,2 A,2 | =B,2 D2 C4 B,4 | %60
 C4 A2 G2 F2 ED | C6 D2 E2 F2 | F3 E D4 A3 F | E4 C4 =B,2 E2 | F2 G4 =B2 c4- | c3 G E4 D2 C2 | %66
 C8 A4 | =B2 d2 f2 B2 G2 F2 | E2 F2 G4 F4 | G2 B2 A2 F2 D2 =B,2 | E4 B2 G2 A2 c2 | %71
 d2 D2 =B,2 D4 G2 | A2 B2 G2 E2 F4 | G2 A2 F2 D2 E4 | A2 F2 B2 G2 c2 A2 | B4 =B6 G2 | %76
 c4 G2 A2 B2 A2 | B6 B2 =B2 G2 | F4 D6 C2 | =B,2 D2 E2 C2 G4- | G2 E4 B,4 =B,2 | C6 D4 E2 | %82
 F4 G4 A2 B2 | G4 =B2 G2 D2 =B,2 | G4 c^FGE D4 | C6 =B,2 C2 D2 | E3 F G4 A2 G2 | %87
 F2 D2 =B,2 G,2 B,4 | C2 E4 F2 G2 D2 | C6 A2 B4 | E4 B4 A2 c2 | =B2 E2 D2 E2 F4 | E2 F2 G4 F2 G2 | %93
 A6 G2 G2 F2 | F3 G E6 A2 | E2 C2 =B,2 F2 D2 B,2 | A,2 A2 G2 E2 B,2 G2 | E2 C2 A,3 B, C4 | %98
 C2 =B,2 C6 D2 | E6 F2 G2 =B2 | c2 G2 E2 G2 A2 G2- | G2 B2 F2 A2 =B4- | B2 F2 D2 F4 A2 | %103
 G2 E2 C2 D4 =B,2 | C8 c4- | c4 c4 =B4 | c3 c c6 A2 | G2 F2 G2 D2 =B,2 D2 | E2 F2 G6 c2 | %109
 =B2 c2 d6 e2- | e2 c2 d2 =B2 A2 F2 | E2 C2 E2 G2 !fermata!D2 =B,2 | C12 |] %113
V:3
 z4 C,4 D,4 | E,4 F,4 G,4 | A,4 G,4 F,4 | G,4 G,,8 | C,4 C,4 D,4 | E,4 F,4 G,4 | A,4 G,4 F,4 | %7
 G,4 G,,8 | C,4 C,4 D,4 | E,4 F,4 G,4 | A,4 G,4 F,4 | G,4 G,,8 | C,4 C,4 D,4 | E,4 F,4 G,4 | %14
 A,4 G,4 F,4 | G,4 G,,8 | C,4 C,4 D,4 | E,4 F,4 G,4 | A,4 G,4 F,4 | G,4 G,,8 | C,4 C,4 D,4 | %21
 E,4 F,4 G,4 | A,4 G,4 F,4 | G,4 G,,8 | C,4 C,4 D,4 | E,4 F,4 G,4 | A,4 G,4 F,4 | G,4 G,,8 | %28
 C,4 C,4 D,4 | E,4 F,4 G,4 | A,4 G,4 F,4 | G,4 G,,8 | C,4 C,4 D,4 | E,4 F,4 G,4 | A,4 G,4 F,4 | %35
 G,4 G,,8 | C,4 C,4 D,4 | E,4 F,4 G,4 | A,4 G,4 F,4 | G,4 G,,8 | C,4 C,4 D,4 | E,4 F,4 G,4 | %42
 A,4 G,4 F,4 | G,4 G,,8 | C,4 C,4 D,4 | E,4 F,4 G,4 | A,4 G,4 F,4 | G,4 G,,8 | C,4 C,4 D,4 | %49
 E,4 F,4 G,4 | A,4 G,4 F,4 | G,4 G,,8 | C,4 C,4 D,4 | E,4 F,4 G,4 | A,4 G,4 F,4 | G,4 G,,8 | %56
 C,4 C,4 D,4 | E,4 F,4 G,4 | A,4 G,4 F,4 | G,4 G,,8 | C,4 C,4 D,4 | E,4 F,4 G,4 | A,4 G,4 F,4 | %63
 G,4 G,,8 | C,4 C,4 D,4 | E,4 F,4 G,4 | A,4 G,4 F,4 | G,4 G,,8 | C,4 C,4 D,4 | E,4 F,4 G,4 | %70
 A,4 G,4 F,4 | G,4 G,,8 | C,4 C,4 D,4 | E,4 F,4 G,4 | A,4 G,4 F,4 | G,4 G,,8 | C,4 C,4 D,4 | %77
 E,4 F,4 G,4 | A,4 G,4 F,4 | G,4 G,,8 | C,4 C,4 D,4 | E,4 F,4 G,4 | A,4 G,4 F,4 | G,4 G,,8 | %84
 C,4 C,4 D,4 | E,4 F,4 G,4 | A,4 G,4 F,4 | G,4 G,,8 | C,4 C,4 D,4 | E,4 F,4 G,4 | A,4 G,4 F,4 | %91
 G,4 G,,8 | C,4 C,4 D,4 | E,4 F,4 G,4 | A,4 G,4 F,4 | G,4 G,,8 | C,4 C,4 D,4 | E,4 F,4 G,4 | %98
 A,4 G,4 F,4 | G,4 G,,8 | C,4 C,4 D,4 | E,4 F,4 G,4 | A,4 G,4 F,4 | G,4 G,,8 | C,4 C,4 D,4 | %105
 E,4 F,4 G,4 | A,4 G,4 F,4 | G,4 G,,8 | C,4 C,4 D,4 | E,4 F,4 G,4 | A,4 G,4 F,4 | G,4 G,,8 | %112
 C,12 |] %113

